public/img/logo.svg

<svg width="221" height="64" viewBox="0 0 221 64" fill="none" xmlns="http://www.w3.org/2000/svg">
<path d="M172.198 30.1871C173.793 27.403 174.766 27.6163 175.977 29.3175C177.416 31.3419 178.09 34.4033 178.373 36.1764C175.482 40.6964 172.312 45.1656 170.604 45.6101C170.556 45.621 170.507 45.6249 170.458 45.6214C168.78 45.4395 170.014 33.9838 172.198 30.1855V30.1871ZM216.089 25.3494C214.778 26.2125 196.023 47.1836 194.37 47.2272C191.573 47.2902 191.55 33.1975 191.299 29.804C191.086 26.9714 190.297 27.2405 187.196 26.3346C186.417 26.1131 185.921 26.0582 185.593 26.0533C185.556 26.0533 185.513 26.0533 185.483 26.0533H185.447C185.252 26.0587 185.06 26.1061 184.884 26.1923C184.709 26.2785 184.554 26.4014 184.43 26.5528C183.877 27.2284 182.4 29.6973 180.59 32.6431C179.882 30.8716 178.448 27.8345 176.623 26.2756C174.764 24.6811 169.134 23.4753 166.586 28.6192C162.212 37.4686 164.656 45.8541 167.252 47.4995C169.743 49.0779 174.964 49.5789 180.478 42.7847C181.812 41.1466 183.064 39.506 184.199 37.9503C185.149 43.0296 186.637 47.7557 188.437 49.01C190.805 50.6675 194.687 52.6128 202.069 44.161C209.45 35.7093 214.143 29.4589 216.404 27.5606C217.324 26.7888 217.654 26.1358 217.654 25.6929C217.643 25.3252 217.395 25.0957 217.05 25.0561C216.77 25.0286 216.436 25.1159 216.093 25.3446L216.089 25.3494ZM30.4464 45.2496C32.4902 34.9569 35.6356 31.5181 37.2786 33.5094C38.3728 34.8348 39.6093 37.0856 40.314 38.4392C38.705 41.4884 38.4552 43.462 36.9674 45.6812C34.8937 48.7853 32.3714 51.5808 30.9911 51.4361C29.9728 51.3254 29.5792 49.6129 30.4464 45.2464V45.2496ZM67.1289 47.805C66.9925 47.65 66.8669 47.4859 66.7531 47.3137C66.7321 47.2539 66.7167 47.1949 66.6908 47.1286C65.0252 42.8453 64.1273 37.682 63.8898 32.4031C67.8974 33.0496 73.4261 33.284 73.8002 38.9718C74.1599 44.4229 69.0531 48.121 67.4715 47.9545C67.3426 47.9494 67.2203 47.8961 67.1289 47.805ZM72.5395 4.05029C74.7531 3.4967 76.2247 9.49327 73.6976 17.6323C71.1818 25.7099 65.8213 28.2725 63.8186 29.2852C63.8348 16.7659 67.3438 5.3482 72.5395 4.05029ZM59.2275 14.2744C58.252 20.2394 58.4532 25.9119 59.0658 31.1165C58.5001 32.0151 57.8851 33.2533 57.2071 34.9334C52.1415 47.3056 50.8848 47.6216 50.8848 47.6216C50.8848 47.6216 50.6423 37.5398 50.7797 35.0951C50.9171 32.6504 51.4723 32.7304 51.4723 32.7304C51.4723 32.7304 52.3306 32.0661 50.8153 31.4882C50.7528 31.4638 50.6877 31.4465 50.6213 31.4365C49.2959 30.9233 47.5148 29.6141 46.1441 29.8347C45.2188 29.9859 43.9095 31.9198 42.4266 34.5302C40.8361 33.3753 38.0964 31.6507 35.8667 31.4721C31.5939 31.1375 28.7395 31.4292 26.7159 38.5613C24.4684 46.4473 25.8051 51.9768 31.8404 53.5834C37.1646 55.0114 41.6855 49.9596 45.6156 42.7888C45.6843 45.8549 46.1393 48.5122 47.6594 49.6986C50.5567 51.9453 53.6447 54.5362 57.7615 47.8834C58.9538 45.9444 60.007 43.9232 60.9133 41.8351C62.9919 49.549 66.8622 50.3912 71.1648 50.2724C76.3128 50.1301 81.06 44.3437 80.9864 38.8845C80.9161 33.8925 74.5615 31.6749 67.1111 30.836C74.2229 27.1928 78.9612 23.5149 81.9918 15.3112C85.6269 5.49528 78.8884 1.58943 73.2006 0.640648C72.6694 0.549057 72.1575 0.477938 71.6651 0.427294C64.3706 -0.360665 61.1089 2.87926 59.2275 14.2744ZM144.882 44.8528C143.612 43.2793 144.04 34.2934 145.487 31.8325C148.446 26.7936 150.193 33.0553 150.698 34.0954C151.12 34.9779 152.691 35.1363 154.496 35.5832C150.991 42.2344 146.908 45.2569 145.358 45.0864C145.267 45.0814 145.178 45.0582 145.096 45.0181C145.015 44.9779 144.942 44.9217 144.882 44.8528ZM120.652 12.5982C120.652 12.5982 119.865 13.745 122.41 15.4615C124.955 17.1781 124.592 16.1412 126.837 13.21C146.065 -11.9134 162.092 10.7192 158.355 25.3462C157.678 28.0497 156.769 30.6898 155.638 33.2371C155.336 32.6479 155.013 32.0701 154.773 31.603C153.9 29.9147 150.787 26.7427 147.034 26.1212C144.962 25.781 142.371 25.6072 140.407 27.3044H140.39C140.383 27.3115 140.378 27.3214 140.378 27.3318C139.726 27.9118 139.197 28.6164 138.823 29.404C138.509 30.0433 138.252 30.7091 138.056 31.3937C134.691 37.1648 128.891 46.4522 129.058 41.6695C129.223 37.5597 129.938 33.4905 131.183 29.5705C132.609 26.0259 130.867 26.5641 129.379 26.5722C127.359 26.5916 125.338 26.754 125.237 27.2284C123.749 34.3758 114.595 47.0211 114.852 39.3953C114.964 36.0293 117.459 26.6716 116.676 25.6622C115.937 24.6972 113.11 23.2894 112.089 23.19C111.125 22.7439 110.231 22.9476 108.919 25.1239C107.767 27.0272 104.449 34.9294 101.755 39.9416C102.684 34.194 103.948 26.0897 104.039 24.0289C104.177 20.7421 100.883 19.8596 99.537 19.3456C97.0099 18.3653 96.5888 17.8578 93.9477 21.366C92.8163 22.8692 90.8897 26.2319 88.9097 30.2501C89.4592 24.5122 88.2389 24.3125 85.9542 23.5424C85.1582 23.27 84.0049 23.2102 82.5599 26.817C82.2617 27.5444 84.3128 27.4902 84.3128 27.4902C84.3128 27.4902 80.7989 56.412 80.5953 58.7661C80.3916 61.1203 81.0365 61.6505 83.0392 62.5201C84.2212 63.0351 85.439 63.4635 86.6832 63.8018C86.6832 63.8018 85.5429 51.3399 90.9204 37.627C93.479 31.1084 97.2192 27.4442 98.7547 25.4609C99.2792 29.8396 95.9261 40.8031 95.3402 43.2599C94.9095 45.0201 96.2947 46.0723 97.9037 46.9306C100.375 48.3853 101.74 49.0496 102.827 48.0693C103.579 47.3929 107.421 38.2792 110.641 31.8519C110.43 35.4563 109.987 39.5812 111.357 43.4377C112.135 45.6133 114.891 46.9419 116.635 47.3816C118.098 47.7452 121.069 45.7475 124.841 40.5122C124.303 43.6883 124.68 46.0699 127.851 46.9872C129.69 47.5206 133.871 42.8655 137.691 37.9358C138.257 41.7689 140.15 45.3442 143.038 47.013C152.009 52.2063 159.942 41.4246 163.354 30.3932C167.056 18.4089 160.999 7.58196 152.212 2.70066C149.711 1.30904 146.958 0.431422 144.113 0.119383C136.372 -0.711408 127.685 2.7249 120.652 12.5982ZM32.7326 14.6582C26.2431 14.4457 6.22491 18.0913 1.7388 20.6669C0.406139 21.4298 -0.0343095 22.4231 0.00205785 23.4365C0.0982292 25.8408 2.87669 28.3849 2.87669 28.3849C2.87669 28.3849 2.87669 26.316 5.62849 25.5199C6.24108 25.343 10.9543 24.2592 16.7246 22.95C15.6804 30.5863 14.5959 43.6551 14.2257 47.8867C13.8144 52.5667 13.6471 55.1375 17.4374 57.1547C19.8134 58.413 21.2414 58.4162 21.0789 57.3915C20.4655 53.5632 22.6145 33.4577 24.2583 21.248C32.3399 19.428 38.4819 17.768 38.9022 17.6808C39.7233 17.5022 37.1646 15.106 33.46 14.7083C33.2175 14.6809 32.9751 14.6647 32.7326 14.6566V14.6582Z" fill="white"/>
<path d="M195.199 5.26095C195.199 5.26095 193.704 8.28267 192.926 12.5498L193.58 13.3692C193.58 13.3692 194.498 12.0043 196.195 11.7529C196.509 11.7105 196.829 11.7775 197.1 11.9425C197.371 12.1076 197.577 12.3608 197.684 12.6597C198.117 13.8453 198.193 16.1202 194.878 19.2058C194.654 19.4185 194.38 19.5728 194.082 19.6551C193.784 19.7374 193.47 19.7452 193.168 19.6778C192.528 19.5333 191.925 19.254 191.402 18.8583C191.353 18.8205 191.295 18.7963 191.234 18.7881C191.173 18.78 191.111 18.7883 191.054 18.812C190.997 18.8358 190.948 18.8742 190.911 18.9234C190.874 18.9726 190.85 19.0307 190.843 19.0919L190.753 19.9501C190.753 19.9501 194.162 22.8377 198.115 19.6212C202.068 16.4047 201.9 13.9932 201.9 13.9932C201.9 13.9932 201.674 10.2037 195.865 9.89981L196.217 7.09871C196.217 7.09871 199.263 6.24529 202.006 6.42228C202.249 6.43798 202.493 6.4005 202.72 6.31243C202.948 6.22436 203.153 6.08782 203.322 5.91233C203.863 5.3353 204.584 4.44956 204.588 3.81111C204.596 2.76858 198.234 3.67857 195.199 5.26095Z" fill="white"/>
<path d="M204.913 16.5809C204.913 16.5809 203.096 15.8293 202.574 18.6417C202.052 21.4542 206.367 18.8753 204.913 16.5809Z" fill="white"/>
<path d="M208.795 11.276C208.795 11.276 208.404 18.2496 210.94 18.1236C213.657 17.9886 216.397 12.8786 216.385 9.12468C216.376 6.56603 211.991 6.37692 210.162 8.74969C210.162 8.74969 208.434 8.73757 208.594 7.74434C208.974 5.34328 214.17 1.99668 219.729 5.10245C223.345 7.12771 218.928 19.8045 210.509 19.832C210.509 19.832 207.135 19.5952 207.353 14.0294C207.353 14.0294 207.25 11.6995 208.795 11.276Z" fill="white"/>
</svg>

<svg width="221" height="64" fill="none" xmlns="http://www.w3.org/2000/svg"><path d="M172.198 30.187c1.595-2.784 2.568-2.57 3.779-.87 1.439 2.025 2.113 5.086 2.396 6.86-2.891 4.52-6.061 8.989-7.769 9.433a.498.498 0 01-.146.011c-1.678-.181-.444-11.637 1.74-15.436v.002zm43.891-4.838c-1.311.863-20.066 21.835-21.719 21.878-2.797.063-2.82-14.03-3.071-17.423-.213-2.833-1.002-2.563-4.103-3.47-.779-.22-1.275-.276-1.603-.28h-.146a1.366 1.366 0 00-1.017.499c-.553.675-2.03 3.144-3.84 6.09-.708-1.771-2.142-4.809-3.967-6.367-1.859-1.595-7.489-2.8-10.037 2.343-4.374 8.85-1.93 17.235.666 18.88 2.491 1.579 7.712 2.08 13.226-4.714a115.428 115.428 0 003.721-4.835c.95 5.08 2.438 9.806 4.238 11.06 2.368 1.657 6.25 3.603 13.632-4.849 7.381-8.452 12.074-14.702 14.335-16.6.92-.772 1.25-1.425 1.25-1.868-.011-.368-.259-.597-.604-.637-.28-.027-.614.06-.957.289l-.004.004zM30.446 45.25c2.044-10.292 5.19-13.73 6.833-11.74 1.094 1.326 2.33 3.577 3.035 4.93-1.609 3.05-1.859 5.023-3.347 7.242-2.073 3.104-4.596 5.9-5.976 5.755-1.018-.11-1.412-1.823-.545-6.19v.004zm36.683 2.556a4.496 4.496 0 01-.376-.491c-.02-.06-.036-.12-.062-.185-1.666-4.284-2.564-9.447-2.801-14.726 4.007.647 9.536.881 9.91 6.569.36 5.45-4.747 9.149-6.328 8.983a.514.514 0 01-.343-.15zm5.41-43.755c2.214-.553 3.686 5.443 1.159 13.582-2.516 8.078-7.877 10.64-9.88 11.653.017-12.52 3.526-23.937 8.722-25.235zM59.228 14.274c-.975 5.965-.774 11.638-.161 16.843-.566.898-1.18 2.136-1.859 3.816-5.066 12.373-6.322 12.689-6.322 12.689s-.243-10.082-.105-12.527c.137-2.445.692-2.365.692-2.365s.859-.664-.657-1.242a.903.903 0 00-.194-.052c-1.325-.513-3.106-1.822-4.477-1.601-.925.15-2.234 2.085-3.717 4.695-1.59-1.155-4.33-2.88-6.56-3.058-4.273-.335-7.127-.043-9.151 7.09-2.248 7.885-.91 13.415 5.124 15.021 5.325 1.428 9.845-3.623 13.776-10.794.068 3.066.523 5.723 2.043 6.91 2.898 2.246 5.986 4.837 10.102-1.816a48.134 48.134 0 003.152-6.048c2.079 7.714 5.95 8.556 10.252 8.437 5.148-.142 9.895-5.928 9.821-11.387-.07-4.992-6.425-7.21-13.875-8.049 7.112-3.643 11.85-7.321 14.88-15.525 3.636-9.816-3.103-13.722-8.79-14.67a22.743 22.743 0 00-1.536-.214C64.371-.36 61.11 2.88 59.227 14.274zm85.655 30.579c-1.27-1.574-.842-10.56.605-13.02 2.959-5.04 4.706 1.222 5.211 2.262.422.883 1.993 1.041 3.798 1.488-3.505 6.651-7.588 9.674-9.138 9.503a.681.681 0 01-.476-.233zm-24.23-32.255s-.787 1.147 1.758 2.863c2.545 1.717 2.182.68 4.427-2.251 19.228-25.123 35.255-2.49 31.518 12.136a48.445 48.445 0 01-2.717 7.891c-.302-.59-.625-1.167-.865-1.634-.873-1.688-3.986-4.86-7.739-5.482-2.072-.34-4.663-.514-6.627 1.183h-.017a.04.04 0 00-.012.028 6.513 6.513 0 00-1.555 2.072c-.314.64-.571 1.305-.767 1.99-3.365 5.77-9.165 15.058-8.998 10.276.165-4.11.88-8.18 2.125-12.1 1.426-3.544-.316-3.006-1.804-2.998-2.02.02-4.041.182-4.142.656-1.488 7.148-10.642 19.793-10.385 12.167.112-3.366 2.607-12.723 1.824-13.733-.739-.965-3.566-2.373-4.587-2.472-.964-.446-1.858-.242-3.17 1.934-1.152 1.903-4.47 9.805-7.164 14.818.929-5.748 2.193-13.852 2.284-15.913.138-3.287-3.156-4.17-4.502-4.683-2.527-.98-2.948-1.488-5.59 2.02-1.13 1.503-3.057 4.866-5.037 8.884.55-5.738-.671-5.938-2.956-6.708-.796-.272-1.95-.332-3.394 3.275-.298.727 1.753.673 1.753.673S80.8 56.412 80.596 58.766c-.203 2.354.442 2.885 2.444 3.754 1.182.515 2.4.944 3.644 1.282 0 0-1.14-12.462 4.237-26.175 2.559-6.519 6.3-10.183 7.835-12.166.524 4.379-2.829 15.342-3.415 17.799-.43 1.76.955 2.812 2.564 3.67 2.471 1.455 3.836 2.12 4.923 1.14.752-.677 4.594-9.79 7.814-16.218-.211 3.604-.654 7.73.716 11.586.778 2.175 3.534 3.504 5.278 3.944 1.463.363 4.434-1.634 8.206-6.87-.538 3.176-.161 5.558 3.01 6.475 1.839.534 6.02-4.122 9.84-9.051.566 3.833 2.459 7.408 5.347 9.077 8.971 5.193 16.904-5.588 20.316-16.62C167.057 18.409 161 7.582 152.213 2.701a21.47 21.47 0 00-8.099-2.582c-7.741-.83-16.428 2.606-23.461 12.48zm-87.92 2.06c-6.489-.212-26.507 3.433-30.993 6.009-1.333.763-1.773 1.756-1.737 2.77.096 2.404 2.875 4.948 2.875 4.948s0-2.069 2.751-2.865c.613-.177 5.326-1.26 11.097-2.57-1.045 7.636-2.13 20.705-2.5 24.937-.41 4.68-.578 7.25 3.212 9.268 2.376 1.258 3.804 1.261 3.642.236-.614-3.828 1.535-23.933 3.18-36.143 8.08-1.82 14.223-3.48 14.643-3.567.821-.179-1.737-2.575-5.442-2.973a9.211 9.211 0 00-.727-.051v.001zm162.466-9.397s-1.495 3.022-2.273 7.289l.654.82s.918-1.366 2.615-1.617a1.385 1.385 0 011.489.907c.433 1.185.509 3.46-2.806 6.546a1.886 1.886 0 01-1.71.472 4.611 4.611 0 01-1.766-.82.352.352 0 00-.348-.046.345.345 0 00-.211.28l-.09.858s3.409 2.888 7.362-.329c3.953-3.216 3.785-5.628 3.785-5.628s-.226-3.79-6.035-4.093l.352-2.801s3.046-.854 5.789-.677a1.676 1.676 0 001.316-.51c.541-.577 1.262-1.462 1.266-2.1.008-1.043-6.354-.133-9.389 1.449zm9.714 11.319s-1.817-.75-2.339 2.062 3.793.233 2.339-2.061zm3.882-5.304s-.391 6.974 2.145 6.848c2.717-.135 5.457-5.245 5.445-9-.009-2.558-4.394-2.747-6.223-.374 0 0-1.728-.012-1.568-1.006.38-2.4 5.576-5.747 11.135-2.642 3.616 2.026-.801 14.703-9.22 14.73 0 0-3.374-.237-3.156-5.803 0 0-.103-2.33 1.442-2.753z" fill="#fff"/></svg>
